build/img/menu-close.svg

<svg width="33" height="33" viewBox="0 0 33 33" fill="none" xmlns="http://www.w3.org/2000/svg">
<path fill-rule="evenodd" clip-rule="evenodd" d="M9.46375 0.248779H23.5525C29.0613 0.248779 32.75 4.11628 32.75 9.86878V23.1467C32.75 28.8829 29.0613 32.7488 23.5525 32.7488H9.46375C3.955 32.7488 0.25 28.8829 0.25 23.1467V9.86878C0.25 4.11628 3.955 0.248779 9.46375 0.248779ZM21.391 21.3738C21.9435 20.823 21.9435 19.9292 21.391 19.3767L18.4985 16.4842L21.391 13.5901C21.9435 13.0392 21.9435 12.1292 21.391 11.5767C20.8385 11.0226 19.9448 11.0226 19.376 11.5767L16.4998 14.4676L13.6073 11.5767C13.0385 11.0226 12.1448 11.0226 11.5923 11.5767C11.0398 12.1292 11.0398 13.0392 11.5923 13.5901L14.4848 16.4842L11.5923 19.3605C11.0398 19.9292 11.0398 20.823 11.5923 21.3738C11.8685 21.6501 12.2423 21.798 12.5998 21.798C12.9735 21.798 13.331 21.6501 13.6073 21.3738L16.4998 18.4992L19.3923 21.3738C19.6685 21.668 20.026 21.798 20.3835 21.798C20.7573 21.798 21.1148 21.6501 21.391 21.3738Z" fill="#3A3A3A"/>
</svg>

<svg width="33" height="33" fill="none" xmlns="http://www.w3.org/2000/svg"><path fill-rule="evenodd" clip-rule="evenodd" d="M9.464.249h14.088c5.51 0 9.198 3.867 9.198 9.62v13.278c0 5.736-3.689 9.602-9.198 9.602H9.464c-5.509 0-9.214-3.866-9.214-9.602V9.869c0-5.753 3.705-9.62 9.214-9.62zM21.39 21.374a1.41 1.41 0 000-1.997l-2.892-2.893 2.892-2.894a1.43 1.43 0 000-2.013 1.429 1.429 0 00-2.015 0l-2.876 2.89-2.893-2.89a1.429 1.429 0 00-2.015 0 1.43 1.43 0 000 2.013l2.893 2.894-2.893 2.876a1.43 1.43 0 001.008 2.438c.373 0 .731-.148 1.007-.424l2.893-2.875 2.892 2.875c.277.294.634.424.992.424.373 0 .73-.148 1.007-.424z" fill="#3A3A3A"/></svg>
